dhis-2/dhis-support/dhis-support-system/src/main/resources/SVGs/iud_positive.svg

<?xml version="1.0" encoding="UTF-8" standalone="no"?>
<!-- Created with Inkscape (http://www.inkscape.org/) -->
<svg id="svg8" xmlns:rdf="http://www.w3.org/1999/02/22-rdf-syntax-ns#" xmlns="http://www.w3.org/2000/svg" xmlns:osb="http://www.openswatchbook.org/uri/2009/osb" height="48" width="48" version="1.1" xmlns:cc="http://creativecommons.org/ns#" viewBox="0 0 12.7 12.7" xmlns:dc="http://purl.org/dc/elements/1.1/">
 <title id="title4753">UIO-icon</title>
 <metadata id="metadata5">
  <rdf:RDF>
   <cc:Work rdf:about="">
    <dc:format>image/svg+xml</dc:format>
    <dc:type rdf:resource="http://purl.org/dc/dcmitype/StillImage"/>
    <dc:title>UIO-icon</dc:title>
    <dc:creator>
     <cc:Agent>
      <dc:title>Joaquín Urbano</dc:title>
     </cc:Agent>
    </dc:creator>
    <dc:rights>
     <cc:Agent>
      <dc:title>GPL</dc:title>
     </cc:Agent>
    </dc:rights>
   </cc:Work>
  </rdf:RDF>
 </metadata>
 <g id="layer1" transform="translate(0,-284.3)" fill="#333">
  <path id="rect900" d="m7.9414 4.3633c-0.4529 0-0.8184 0.3654-0.8184 0.8183 0 0.453 0.3655 0.8184 0.8184 0.8184h15.424v32.043c-0.7 0.319-1.149 1.018-1.15 1.787 0 1.086 0.88 1.967 1.967 1.967 0.913-0.002 1.705-0.632 1.912-1.522 1.956 0.313 2.365 0.575 3.32 2.639 0.155 0.255 0.379 0.437 0.762 0.252 1.665-1.11 1.568-0.458 2.982 0.834h0.656c-1.615-1.518-1.911-2.495-3.371-1.592-0.621 0.383-0.578 0.274-0.705 0.014-0.902-1.855-1.547-2.237-3.593-2.662-0.027-0.743-0.47-1.407-1.145-1.717v-32.043h15.424c0.453 0 0.818-0.3654 0.818-0.8184 0-0.4529-0.365-0.8183-0.818-0.8183h-15.424-1.635-15.424zm16.25 34.733a0.7513 0.7513 0 0 1 0.715 0.527h-0.49c-0.142 0-0.258 0.114-0.258 0.256s0.116 0.258 0.258 0.258h0.467a0.7513 0.7513 0 0 1 -0.692 0.461 0.7513 0.7513 0 0 1 -0.752 -0.752 0.7513 0.7513 0 0 1 0.752 -0.75z" fill-rule="evenodd" transform="matrix(.26458 0 0 .26458 0 284.3)"/>
 </g>
</svg>

<svg width="48" height="48" viewBox="0 0 48 48" fill="none" xmlns="http://www.w3.org/2000/svg">
<path fill-rule="evenodd" clip-rule="evenodd" d="M7.94119 4.36328C7.4883 4.36328 7.1228 4.72868 7.1228 5.18157C7.1228 5.63457 7.4883 5.99996 7.94119 5.99996H23.365V38.0426C22.665 38.3616 22.216 39.0606 22.215 39.8295C22.215 40.9155 23.095 41.7965 24.182 41.7965C25.095 41.7945 25.887 41.1645 26.094 40.2745C28.0499 40.5875 28.4589 40.8495 29.4139 42.9135C29.5689 43.1685 29.7929 43.3505 30.1759 43.1655C31.8409 42.0555 31.7439 42.7075 33.1579 43.9995H33.8139C32.1989 42.4815 31.9029 41.5045 30.4429 42.4075C29.8219 42.7905 29.8649 42.6815 29.7379 42.4215C28.8359 40.5665 28.1909 40.1845 26.145 39.7595C26.118 39.0165 25.675 38.3526 25 38.0426V5.99996H40.4238C40.8768 5.99996 41.2418 5.63457 41.2418 5.18157C41.2418 4.72868 40.8768 4.36328 40.4238 4.36328H25H23.365H7.94119ZM24.191 39.0958C24.3507 39.0963 24.5061 39.1476 24.6347 39.2424C24.7633 39.3371 24.8583 39.4704 24.906 39.6228H24.416C24.274 39.6228 24.158 39.7368 24.158 39.8788C24.158 40.0208 24.274 40.1368 24.416 40.1368H24.883C24.8258 40.2733 24.7297 40.3898 24.6066 40.4718C24.4835 40.5538 24.3389 40.5976 24.191 40.5978C24.0922 40.5979 23.9944 40.5785 23.9031 40.5408C23.8118 40.503 23.7289 40.4476 23.659 40.3778C23.5892 40.3079 23.5338 40.225 23.4961 40.1337C23.4583 40.0424 23.4389 39.9446 23.439 39.8458C23.4393 39.6467 23.5187 39.4558 23.6598 39.3152C23.8008 39.1746 23.9918 39.0957 24.191 39.0958Z" fill="#333333"/>
</svg>
